X:1
T:Complex Key and Accidental Test
M:4/4
L:1/8
K:D
|:d2A2F2A2|B2A2F2E2|D2F2A2d2|e2d2c2B2|A2^c2d2e2|f2e2d2c2|B2A2G2F2|E2D2D4:||:B2d2f2d2|c2B2A2G2|F2A2c2f2|e2d2c2B2|A2G2F2E2|D2F2B2d2|c2_e2d2c2|B8:|
